X: 0
T: When Righteous Joseph Wedded Was
Z: English Traditional From William Sandys
Z: Copyright © 2006 by Douglas D. Anderson
Z: Released To The Public Domain
L: 1/4
M: 4/4
V: P1 name="Church Organ"
%%MIDI program 1 19
V: P2 name="French Horn"
%%MIDI program 2 60
V: P3 name="Trombone"
%%MIDI program 3 57
V: P4 name="Tuba"
%%MIDI program 4 58
K: F
[V: P1]  (F3/ E/) | F2 (G3/ G/4A/4) | (A G) F2 | f2 (e d) | c2 f2 | (e d) (c d) | (d =c/d/) e2 | c2 (F3/ E/) | F2 (G3/ A/4B/4) | (A G) F2 | f2 (e d) | c2 f2 | (e d) (c d) | (c B/c/) d2 | c2z B | A3/ (B/4c/4 d2) | c3 A | B2 A2 | G2 (G A) | B2 (c d) | (e d/c/) =B2 | c2z B | A2 d2 | c3 A | B2 A2 | G2 (f e/d/) | c2 (B A) | (G F) (A G) | F2z"^Chorus" B | (A3/ B/4c/4) d2 | c3 A | B2 A2 | G2 (G A) | B2 (c d) | (e d/c/) =B2 | c2z B | A2 d2 | c3 A | B2 A2 | G2 f (e/d/) | c2 (B A) | (G F) (A G) | F2|]
w: When_ right- eous__ Jo-_ seph wed- ded_ was To Is-_ rael's_ Heb-__ rew maid, A_ glo- rious__ An-_ gel from Heaven_ came, Who to_ the_ Vir-__ gin said: Hail, bless- ed__ Ma- ry, full of grace, The_ Lord re-_ main__ with thee, Thou shalt con- ceive and bear a Son, Our__ Sa- viour_ for_ to_ be. Then sing__ you all, both great and small, Now_ well, now_ well,__ now well; We may re- joice to hear the voice Of the_ An- gel_ Ga-_ bri_ el.
[V: P2]  C2 | C2 C2 | C2 (D E) | F2 F2 | F2 F2 | G2 (E A) | G2 G2 | E2 C2 | C2 C2 | C2 (D E) | F2 F2 | F2 F2 | G2 (E A) | G2 G2 | E2z G | F2 F2 | F3 F | (D E) F2 | E2 (D ^F) | G2 G2 | (E G) (G F) | E2z G | (F3/ E/) D/E/ F | F3 F | (F E) F2 | E2 (F G) | G2 (F E) | D3 E | F2z G | F2 F2 | F3 F | (D E) F2 | E2 (D ^F) | G2 G2 | (E G) (G F) | E2z G | (F3/ E/) D/E/ F | F3 F | (F E) F2 | E2 (F G) | G2 (F E) | D3 E | F2|]
[V: P3]  (A,3/ B,/) | A,2 G,2 | (F, G,) (A, C) | (D B,) (C B,) | A,3 =B, | (C =B,) (C F) | (E D/C/) C =B, | C2 (A,3/ B,/) | A,2 G,2 | (F, G,) (A, C) | (D B,) (C B,) | A,3 =B, | (C =B,) (C F) | (E D/C/) C =B, | C2z C | (C A,) B,2 | (A, B,) C2 | B,2 C2 | C2 (D C) | (B, A,) (G,/A,/ =B,) | C2 D2 | C2z C | (C A,) B,2 | (A, B,) C2 | B,2 C2 | C2 (C =B,) | (C G,/A,/) (B, C) | (D A,/B,/) (C B,) | A,2z C | (C A,) B,2 | (A, B,) C2 | B,2 C2 | C2 (D C) | (B, A,) (G,/A,/ =B,) | C2 D2 | C2z C | (C A,) B,2 | (A, B,) C2 | B,2 C2 | C2 (C =B,) | (C G,/A,/) (B, C) | (D A,/B,/) (C B,) | A,2|]
[V: P4]  (F,3/ G,/) | F,2 E,2 | (F, E,) (D, C,) | B,,3 D, | (F, E,) D,2 | (C, G,) (A, F,) | G,2 G,,2 | C,2 (F,3/ G,/) | F,2 E,2 | (F, E,) (D, C,) | B,,3 D, | (F, E,) D,2 | (C, G,) (A, F,) | G,2 G,,2 | C,2z E, | F,2 (B,, D,) | (F, G,) (A, G,) | G,2 (F, A,) | C2 (B, A,) | (G, F,) (E, D,) | (C, E,) G,2 | C,2z E, | F,2 (B,, D,/E,/) | (F, G,) (A, F,) | G,2 (F, A,) | (C B,) (A, F,) | E,2 (D, C,) | (B,, D,) C,2 | F,2z E, | F,2 (B,, D,) | (F, G,) (A, G,) | G,2 (F, A,) | C2 (B, A,) | (G, F,) (E, D,) | (C, E,) G,2 | C,2z E, | F,2 (B,, D,/E,/) | (F, G,) (A, F,) | G,2 (F, A,) | (C B,) (A, F,) | E,2 (D, C,) | (B,, D,) C,2 | F,2|]

